; generated by Slic3r 1.1.7 on 2015-03-20 at 17:58:28

; perimeters extrusion width = 0.35mm
; infill extrusion width = 0.52mm
; solid infill extrusion width = 0.52mm
; top infill extrusion width = 0.52mm

G21 ; set units to millimeters
M107
M190 S40 ; wait for bed temperature to be reached
G28 ; home all axes
M106 P0
M109 T0 S210
G1 X10 F1000
G92 E0
G1 E10.0 F50
G92 E0
G1 E-10 F50
G92 E0
G1 X0 F1000
G90
M214 T0
G90 ; use absolute coordinates
G92 E0
M82 ; use absolute distances for extrusion
G1 F1800.000 E-0.70000
G1 Z0.632 F3000.000
G92 E0
G1 X20.120 Y54.608 F3000.000
G1 Z0.350 F3000.000
G1 E0.70000 F1800.000
G1 X21.820 Y53.981 E0.75607 F1080.000
G1 X23.000 Y53.875 E0.79272
G1 X159.000 Y53.875 E5.00074
G1 X161.259 Y54.272 E5.07171
G1 X163.247 Y55.415 E5.14267 F1080.000
G1 X164.726 Y57.168 E5.21363
G1 X165.519 Y59.320 E5.28459
G1 X165.625 Y60.500 E5.32124
G1 X165.625 Y143.500 E7.88937
G1 X165.228 Y145.759 E7.96034
G1 X164.085 Y147.747 E8.03130
G1 X162.332 Y149.226 E8.10226
G1 X160.180 Y150.019 E8.17322
G1 X159.000 Y150.125 E8.20987
G1 X77.400 Y150.098 E10.73468
G1 X22.400 Y145.098 E12.44347
G1 X20.187 Y144.498 E12.51443
G1 X18.310 Y143.179 E12.58539
G1 X16.996 Y141.300 E12.65636
G1 X16.375 Y138.500 E12.74509
G1 X16.375 Y60.500 E15.15851
G1 X16.772 Y58.241 E15.22947
G1 X17.915 Y56.253 E15.30043
G1 X19.668 Y54.774 E15.37139
G1 X20.070 Y54.626 E15.38466
G1 F1800.000 E14.68466
G1 Z0.632 F3000.000
G92 E0
G1 X79.600 Y136.900 F3000.000
G1 Z0.350 F3000.000
G1 E0.70000 F1800.000
G1 X24.600 Y136.900 E2.40177 F720.000
G1 X24.600 Y62.100 E4.71620
G1 X157.400 Y62.100 E8.82522
G1 X157.400 Y141.900 E11.29435
G1 X79.600 Y141.900 E13.70159
G1 X79.600 Y136.953 E13.85468
G1 X78.975 Y137.525 F3000.000
G1 X23.975 Y137.525 E15.55645 F720.000
G1 X23.975 Y61.475 E17.90954
G1 X158.025 Y61.475 E22.05723
G1 X158.025 Y142.525 E24.56503
G1 X78.975 Y142.525 E27.01095
G1 X78.975 Y137.578 E27.16403
G1 X78.350 Y138.150 F3000.000
G1 X23.350 Y138.150 E28.86581 F504.000
G1 X23.350 Y60.850 E31.25757
G1 X158.650 Y60.850 E35.44393
G1 X158.650 Y143.150 E37.99040
G1 X78.350 Y143.150 E40.47499
G1 X78.350 Y138.202 E40.62807
G1 X78.350 Y137.800 F3000.000
G1 X79.181 Y136.467 F3000.000
G1 X25.033 Y82.319 E42.99747 F1080.000
G1 X25.033 Y83.206 E43.02491
G1 X78.294 Y136.467 E45.35550
G1 X77.407 Y136.467 E45.38294
G1 X25.033 Y84.093 E47.67472
G1 X25.033 Y84.980 E47.70216
G1 X76.520 Y136.467 E49.95512
G1 X75.633 Y136.467 E49.98256
G1 X25.033 Y85.867 E52.19671
G1 X25.033 Y86.754 E52.22415
G1 X74.746 Y136.467 E54.39948
G1 X73.859 Y136.467 E54.42693
G1 X25.033 Y87.641 E56.56344
G1 X25.033 Y88.528 E56.59089
G1 X72.972 Y136.467 E58.68859
G1 X72.085 Y136.467 E58.71604
G1 X25.033 Y89.415 E60.77493
G1 X25.033 Y90.302 E60.80237
G1 X71.198 Y136.467 E62.82245
G1 X70.311 Y136.467 E62.84989
G1 X25.033 Y91.189 E64.83115
G1 X25.033 Y92.076 E64.85860
G1 X69.424 Y136.467 E66.80104
G1 X68.537 Y136.467 E66.82849
G1 X25.033 Y92.963 E68.73212
G1 X25.033 Y93.850 E68.75957
G1 X67.650 Y136.467 E70.62438
G1 X66.763 Y136.467 E70.65183
G1 X25.033 Y94.737 E72.47783
G1 X25.033 Y95.624 E72.50528
G1 X65.876 Y136.467 E74.29247
G1 X64.989 Y136.467 E74.31992
G1 X25.033 Y96.511 E76.06829
G1 X25.033 Y97.398 E76.09574
G1 X64.102 Y136.467 E77.80530
G1 X63.215 Y136.467 E77.83275
G1 X25.033 Y98.285 E79.50349
G1 X25.033 Y99.172 E79.53094
G1 X62.328 Y136.467 E81.16288
G1 X61.441 Y136.467 E81.19032
G1 X25.033 Y100.059 E82.78344
G1 X25.033 Y100.946 E82.81089
G1 X60.554 Y136.467 E84.36519
G1 X59.667 Y136.467 E84.39264
G1 X25.033 Y101.833 E85.90813
G1 X25.033 Y102.720 E85.93558
G1 X58.780 Y136.467 E87.41226
G1 X57.893 Y136.467 E87.43970
G1 X25.033 Y103.607 E88.87757
G1 X25.033 Y104.494 E88.90501
G1 X57.006 Y136.467 E90.30407
G1 X56.119 Y136.467 E90.33151
G1 X25.033 Y105.381 E91.69175
G1 X25.033 Y106.268 E91.71919
G1 X55.232 Y136.467 E93.04062
G1 X54.344 Y136.467 E93.06806
G1 X25.033 Y107.156 E94.35067
G1 X25.033 Y108.043 E94.37812
G1 X53.457 Y136.467 E95.62191
G1 X52.570 Y136.467 E95.64936
G1 X25.033 Y108.930 E96.85434
G1 X25.033 Y109.817 E96.88179
G1 X51.683 Y136.467 E98.04795
G1 X50.796 Y136.467 E98.07540
G1 X25.033 Y110.704 E99.20275
G1 X25.033 Y111.591 E99.23020
G1 X49.909 Y136.467 E100.31874
G1 X49.022 Y136.467 E100.34618
G1 X25.033 Y112.478 E101.39591
G1 X25.033 Y113.365 E101.42336
G1 X48.135 Y136.467 E102.43427
G1 X47.248 Y136.467 E102.46171
G1 X25.033 Y114.252 E103.43381
G1 X25.033 Y115.139 E103.46126
G1 X46.361 Y136.467 E104.39454
G1 X45.474 Y136.467 E104.42199
G1 X25.033 Y116.026 E105.31646
G1 X25.033 Y116.913 E105.34390
G1 X44.587 Y136.467 E106.19956
G1 X43.700 Y136.467 E106.22701
G1 X25.033 Y117.800 E107.04385
G1 X25.033 Y118.687 E107.07129
G1 X42.813 Y136.467 E107.84932
G1 X41.926 Y136.467 E107.87677
G1 X25.033 Y119.574 E108.61598
G1 X25.033 Y120.461 E108.64343
G1 X41.039 Y136.467 E109.34383
G1 X40.152 Y136.467 E109.37127
G1 X25.033 Y121.348 E110.03286
G1 X25.033 Y122.235 E110.06031
G1 X39.265 Y136.467 E110.68308
G1 X38.378 Y136.467 E110.71053
G1 X25.033 Y123.122 E111.29448
G1 X25.033 Y124.009 E111.32193
G1 X37.491 Y136.467 E111.86708
G1 X36.604 Y136.467 E111.89452
G1 X25.033 Y124.896 E112.40085
G1 X25.033 Y125.783 E112.42830
G1 X35.717 Y136.467 E112.89582
G1 X34.830 Y136.467 E112.92326
G1 X25.033 Y126.670 E113.35196
G1 X25.033 Y127.557 E113.37941
G1 X33.943 Y136.467 E113.76930
G1 X33.056 Y136.467 E113.79674
G1 X25.033 Y128.444 E114.14782
G1 X25.033 Y129.331 E114.17527
G1 X32.169 Y136.467 E114.48753
G1 X31.282 Y136.467 E114.51497
G1 X25.033 Y130.218 E114.78842
G1 X25.033 Y131.105 E114.81587
G1 X30.395 Y136.467 E115.05050
G1 X29.508 Y136.467 E115.07795
G1 X25.033 Y131.992 E115.27377
G1 X25.033 Y132.879 E115.30121
G1 X28.621 Y136.467 E115.45822
G1 X27.734 Y136.467 E115.48566
G1 X25.033 Y133.766 E115.60385
G1 X25.033 Y134.653 E115.63130
G1 X26.847 Y136.467 E115.71068
G1 X25.960 Y136.467 E115.73812
G1 X25.033 Y135.540 E115.77869
G1 X25.033 Y136.427 E115.80613
G1 X25.073 Y136.467 E115.80788
G1 F1800.000 E115.10788
G1 Z0.632 F3000.000
G92 E0
G1 X80.033 Y140.867 F3000.000
G1 Z0.350 F3000.000
G1 E0.70000 F1800.000
G1 X80.633 Y141.467 E0.72626 F1080.000
G1 X81.520 Y141.467 E0.75371
G1 X80.033 Y139.980 E0.81878
G1 X80.033 Y139.093 E0.84623
G1 X82.407 Y141.467 E0.95012
G1 X83.294 Y141.467 E0.97757
G1 X80.033 Y138.206 E1.12027
G1 X80.033 Y137.319 E1.14772
G1 X84.181 Y141.467 E1.32923
G1 X85.068 Y141.467 E1.35668
G1 X25.033 Y81.432 E3.98368
G1 X25.033 Y80.545 E4.01113
G1 X85.955 Y141.467 E6.67694
G1 X86.842 Y141.467 E6.70439
G1 X25.033 Y79.658 E9.40902
G1 X25.033 Y78.771 E9.43646
G1 X87.729 Y141.467 E12.17990
G1 X88.616 Y141.467 E12.20735
G1 X25.033 Y77.884 E14.98961
G1 X25.033 Y76.997 E15.01705
G1 X89.503 Y141.467 E17.83812
G1 X90.390 Y141.467 E17.86557
G1 X25.033 Y76.110 E20.72545
G1 X25.033 Y75.223 E20.75290
G1 X91.277 Y141.467 E23.65160
G1 X92.164 Y141.467 E23.67904
G1 X25.033 Y74.336 E26.61656
G1 X25.033 Y73.449 E26.64400
G1 X93.051 Y141.467 E29.62033
G1 X93.938 Y141.467 E29.64777
G1 X25.033 Y72.562 E32.66291
G1 X25.033 Y71.675 E32.69036
G1 X94.825 Y141.467 E35.74431
G1 X95.712 Y141.467 E35.77176
G1 X25.033 Y70.788 E38.86453
G1 X25.033 Y69.901 E38.89197
G1 X96.599 Y141.467 E42.02356
G1 X97.486 Y141.467 E42.05100
G1 X25.033 Y69.014 E45.22140
G1 X25.033 Y68.127 E45.24884
G1 X98.373 Y141.467 E48.45805
G1 X99.260 Y141.467 E48.48550
G1 X25.033 Y67.240 E51.73352
G1 X25.033 Y66.353 E51.76097
G1 X100.147 Y141.467 E55.04781
G1 X101.034 Y141.467 E55.07525
G1 X25.033 Y65.466 E58.40090
G1 X25.033 Y64.579 E58.42835
G1 X101.921 Y141.467 E61.79281
G1 X102.808 Y141.467 E61.82026
G1 X25.033 Y63.692 E65.22354
G1 X25.033 Y62.804 E65.25098
G1 X103.696 Y141.467 E68.69308
G1 X104.583 Y141.467 E68.72052
G1 X25.648 Y62.533 E72.17450
G1 X26.535 Y62.533 E72.20195
G1 X105.470 Y141.467 E75.65593
G1 X106.357 Y141.467 E75.68338
G1 X27.422 Y62.533 E79.13736
G1 X28.309 Y62.533 E79.16480
G1 X107.244 Y141.467 E82.61879
G1 X108.131 Y141.467 E82.64623
G1 X29.196 Y62.533 E86.10021
G1 X30.083 Y62.533 E86.12766
G1 X109.018 Y141.467 E89.58164
G1 X109.905 Y141.467 E89.60909
G1 X30.970 Y62.533 E93.06307
G1 X31.857 Y62.533 E93.09051
G1 X110.792 Y141.467 E96.54449
G1 X111.679 Y141.467 E96.57194
G1 X32.744 Y62.533 E100.02592
G1 X33.631 Y62.533 E100.05337
G1 X112.566 Y141.467 E103.50735
G1 X113.453 Y141.467 E103.53479
G1 X34.518 Y62.533 E106.98878
G1 X35.405 Y62.533 E107.01622
G1 X114.340 Y141.467 E110.47020
G1 X115.227 Y141.467 E110.49765
G1 X36.292 Y62.533 E113.95163
G1 X37.179 Y62.533 E113.97908
G1 X116.114 Y141.467 E117.43306
G1 X117.001 Y141.467 E117.46050
G1 X38.066 Y62.533 E120.91448
G1 X38.953 Y62.533 E120.94193
G1 X117.888 Y141.467 E124.39591
G1 X118.775 Y141.467 E124.42336
G1 X39.840 Y62.533 E127.87734
G1 X40.727 Y62.533 E127.90478
G1 X119.662 Y141.467 E131.35877
G1 X120.549 Y141.467 E131.38621
G1 X41.615 Y62.533 E134.84019
G1 X42.502 Y62.533 E134.86764
G1 X121.436 Y141.467 E138.32162
G1 X122.323 Y141.467 E138.34907
G1 X43.389 Y62.533 E141.80305
G1 X44.276 Y62.533 E141.83049
G1 X123.210 Y141.467 E145.28447
G1 X124.097 Y141.467 E145.31192
G1 X45.163 Y62.533 E148.76590
G1 X46.050 Y62.533 E148.79335
G1 X124.984 Y141.467 E152.24733
G1 X125.871 Y141.467 E152.27477
G1 X46.937 Y62.533 E155.72876
G1 X47.824 Y62.533 E155.75620
G1 X126.758 Y141.467 E159.21018
G1 X127.645 Y141.467 E159.23763
G1 X48.711 Y62.533 E162.69161
G1 X49.598 Y62.533 E162.71905
G1 X128.532 Y141.467 E166.17304
G1 X129.419 Y141.467 E166.20048
G1 X50.485 Y62.533 E169.65446
G1 X51.372 Y62.533 E169.68191
G1 X130.306 Y141.467 E173.13589
G1 X131.193 Y141.467 E173.16334
G1 X52.259 Y62.533 E176.61732
G1 X53.146 Y62.533 E176.64476
G1 X132.080 Y141.467 E180.09874
G1 X132.967 Y141.467 E180.12619
G1 X54.033 Y62.533 E183.58017
G1 X54.920 Y62.533 E183.60762
G1 X133.854 Y141.467 E187.06160
G1 X134.741 Y141.467 E187.08904
G1 X55.807 Y62.533 E190.54303
G1 X56.694 Y62.533 E190.57047
G1 X135.628 Y141.467 E194.02445
G1 X136.515 Y141.467 E194.05190
G1 X57.581 Y62.533 E197.50588
G1 X58.468 Y62.533 E197.53333
G1 X137.402 Y141.467 E200.98731
G1 X138.289 Y141.467 E201.01475
G1 X59.355 Y62.533 E204.46873
G1 X60.242 Y62.533 E204.49618
G1 X139.176 Y141.467 E207.95016
G1 X140.063 Y141.467 E207.97761
G1 X61.129 Y62.533 E211.43159
G1 X62.016 Y62.533 E211.45903
G1 X140.950 Y141.467 E214.91302
G1 X141.837 Y141.467 E214.94046
G1 X62.903 Y62.533 E218.39444
G1 X63.790 Y62.533 E218.42189
G1 X142.724 Y141.467 E221.87587
G1 X143.611 Y141.467 E221.90332
G1 X64.677 Y62.533 E225.35730
G1 X65.564 Y62.533 E225.38474
G1 X144.498 Y141.467 E228.83872
G1 X145.385 Y141.467 E228.86617
G1 X66.451 Y62.533 E232.32015
G1 X67.338 Y62.533 E232.34760
G1 X146.273 Y141.467 E235.80158
G1 X147.160 Y141.467 E235.82902
G1 X68.225 Y62.533 E239.28301
G1 X69.112 Y62.533 E239.31045
G1 X148.047 Y141.467 E242.76443
G1 X148.934 Y141.467 E242.79188
G1 X69.999 Y62.533 E246.24586
G1 X70.886 Y62.533 E246.27331
G1 X149.821 Y141.467 E249.72729
G1 X150.708 Y141.467 E249.75473
G1 X71.773 Y62.533 E253.20871
G1 X72.660 Y62.533 E253.23616
G1 X151.595 Y141.467 E256.69014
G1 X152.482 Y141.467 E256.71759
G1 X73.547 Y62.533 E260.17157
G1 X74.434 Y62.533 E260.19901
G1 X153.369 Y141.467 E263.65300
G1 X154.256 Y141.467 E263.68044
G1 X75.321 Y62.533 E267.13442
G1 X76.208 Y62.533 E267.16187
G1 X155.143 Y141.467 E270.61585
G1 X156.030 Y141.467 E270.64330
G1 X77.095 Y62.533 E274.09728
G1 X77.982 Y62.533 E274.12472
G1 X156.917 Y141.467 E277.57870
G1 X156.967 Y140.631 E277.60464
G1 X78.869 Y62.533 E281.02201
G1 X79.756 Y62.533 E281.04946
G1 X156.967 Y139.744 E284.42802
G1 X156.967 Y138.857 E284.45546
G1 X80.643 Y62.533 E287.79521
G1 X81.530 Y62.533 E287.82266
G1 X156.967 Y137.970 E291.12359
G1 X156.967 Y137.083 E291.15103
G1 X82.417 Y62.533 E294.41315
G1 X83.304 Y62.533 E294.44060
G1 X156.967 Y136.196 E297.66390
G1 X156.967 Y135.308 E297.69135
G1 X84.192 Y62.533 E300.87584
G1 X85.079 Y62.533 E300.90329
G1 X156.967 Y134.421 E304.04896
G1 X156.967 Y133.534 E304.07641
G1 X85.966 Y62.533 E307.18327
G1 X86.853 Y62.533 E307.21072
G1 X156.967 Y132.647 E310.27877
G1 X156.967 Y131.760 E310.30621
G1 X87.740 Y62.533 E313.33545
G1 X88.627 Y62.533 E313.36290
G1 X156.967 Y130.873 E316.35332
G1 X156.967 Y129.986 E316.38076
G1 X89.514 Y62.533 E319.33237
G1 X90.401 Y62.533 E319.35982
G1 X156.967 Y129.099 E322.27261
G1 X156.967 Y128.212 E322.30006
G1 X91.288 Y62.533 E325.17404
G1 X92.175 Y62.533 E325.20148
G1 X156.967 Y127.325 E328.03665
G1 X156.967 Y126.438 E328.06409
G1 X93.062 Y62.533 E330.86045
G1 X93.949 Y62.533 E330.88789
G1 X156.967 Y125.551 E333.64543
G1 X156.967 Y124.664 E333.67288
G1 X94.836 Y62.533 E336.39160
G1 X95.723 Y62.533 E336.41905
G1 X156.967 Y123.777 E339.09896
G1 X156.967 Y122.890 E339.12640
G1 X96.610 Y62.533 E341.76750
G1 X97.497 Y62.533 E341.79494
G1 X156.967 Y122.003 E344.39723
G1 X156.967 Y121.116 E344.42467
G1 X98.384 Y62.533 E346.98814
G1 X99.271 Y62.533 E347.01559
G1 X156.967 Y120.229 E349.54024
G1 X156.967 Y119.342 E349.56769
G1 X100.158 Y62.533 E352.05353
G1 X101.045 Y62.533 E352.08097
G1 X156.967 Y118.455 E354.52800
G1 X156.967 Y117.568 E354.55545
G1 X101.932 Y62.533 E356.96366
G1 X102.819 Y62.533 E356.99110
G1 X156.967 Y116.681 E359.36050
G1 X156.967 Y115.794 E359.38795
G1 X103.706 Y62.533 E361.71853
G1 X104.593 Y62.533 E361.74598
G1 X156.967 Y114.907 E364.03775
G1 X156.967 Y114.020 E364.06520
G1 X105.480 Y62.533 E366.31815
G1 X106.367 Y62.533 E366.34560
G1 X156.967 Y113.133 E368.55974
G1 X156.967 Y112.246 E368.58719
G1 X107.254 Y62.533 E370.76252
G1 X108.141 Y62.533 E370.78996
G1 X156.967 Y111.359 E372.92648
G1 X156.967 Y110.472 E372.95393
G1 X109.028 Y62.533 E375.05163
G1 X109.915 Y62.533 E375.07907
G1 X156.967 Y109.585 E377.13796
G1 X156.967 Y108.698 E377.16541
G1 X110.802 Y62.533 E379.18548
G1 X111.689 Y62.533 E379.21293
G1 X156.967 Y107.811 E381.19419
G1 X156.967 Y106.924 E381.22163
G1 X112.576 Y62.533 E383.16408
G1 X113.463 Y62.533 E383.19152
G1 X156.967 Y106.037 E385.09516
G1 X156.967 Y105.150 E385.12260
G1 X114.350 Y62.533 E386.98742
G1 X115.237 Y62.533 E387.01487
G1 X156.967 Y104.263 E388.84087
G1 X156.967 Y103.376 E388.86832
G1 X116.124 Y62.533 E390.65551
G1 X117.011 Y62.533 E390.68295
G1 X156.967 Y102.489 E392.43133
G1 X156.967 Y101.602 E392.45877
G1 X117.898 Y62.533 E394.16834
G1 X118.785 Y62.533 E394.19578
G1 X156.967 Y100.715 E395.86653
G1 X156.967 Y99.828 E395.89398
G1 X119.672 Y62.533 E397.52591
G1 X120.559 Y62.533 E397.55336
G1 X156.967 Y98.941 E399.14648
G1 X156.967 Y98.054 E399.17392
G1 X121.446 Y62.533 E400.72823
G1 X122.333 Y62.533 E400.75568
G1 X156.967 Y97.167 E402.27117
G1 X156.967 Y96.280 E402.29861
G1 X123.220 Y62.533 E403.77529
G1 X124.107 Y62.533 E403.80274
G1 X156.967 Y95.393 E405.24060
G1 X156.967 Y94.506 E405.26805
G1 X124.994 Y62.533 E406.66710
G1 X125.881 Y62.533 E406.69455
G1 X156.967 Y93.619 E408.05478
G1 X156.967 Y92.732 E408.08223
G1 X126.768 Y62.533 E409.40365
G1 X127.656 Y62.533 E409.43110
G1 X156.967 Y91.844 E410.71371
G1 X156.967 Y90.957 E410.74115
G1 X128.543 Y62.533 E411.98495
G1 X129.430 Y62.533 E412.01240
G1 X156.967 Y90.070 E413.21738
G1 X156.967 Y89.183 E413.24482
G1 X130.317 Y62.533 E414.41099
G1 X131.204 Y62.533 E414.43844
G1 X156.967 Y88.296 E415.56579
G1 X156.967 Y87.409 E415.59324
G1 X132.091 Y62.533 E416.68178
G1 X132.978 Y62.533 E416.70922
G1 X156.967 Y86.522 E417.75895
G1 X156.967 Y85.635 E417.78639
G1 X133.865 Y62.533 E418.79730
G1 X134.752 Y62.533 E418.82475
G1 X156.967 Y84.748 E419.79685
G1 X156.967 Y83.861 E419.82429
G1 X135.639 Y62.533 E420.75758
G1 X136.526 Y62.533 E420.78502
G1 X156.967 Y82.974 E421.67949
G1 X156.967 Y82.087 E421.70694
