; generated by Slic3r 1.1.7 on 2015-03-20 at 14:10:10

; perimeters extrusion width = 0.35mm
; infill extrusion width = 0.52mm
; solid infill extrusion width = 0.52mm
; top infill extrusion width = 0.52mm

G21 ; set units to millimeters
M107
M190 S40 ; wait for bed temperature to be reached
G28 ; home all axes
M106 P0
M109 T0 S210
G1 X10 F1000
G92 E0
G1 E10.0 F50
G92 E0
G1 E-10 F50
G92 E0
G1 X0 F1000
G90
M214 T0
G90 ; use absolute coordinates
G92 E0
M82 ; use absolute distances for extrusion
G1 F1800.000 E-0.70000
G1 Z0.632 F3000.000
G92 E0
G1 X46.825 Y55.486 F3000.000
G1 Z0.350 F3000.000
G1 E0.70000 F1800.000
G1 X47.668 Y54.774 E0.73414 F1080.000
G1 X49.820 Y53.981 E0.80511
G1 X51.000 Y53.875 E0.84176
G1 X131.000 Y53.875 E3.31706
G1 X133.259 Y54.272 E3.38802
G1 X135.247 Y55.415 E3.45899 F1080.000
G1 X136.726 Y57.168 E3.52995
G1 X137.519 Y59.320 E3.60091
G1 X137.625 Y60.500 E3.63756
G1 X137.625 Y143.500 E6.20569
G1 X137.228 Y145.759 E6.27665
G1 X136.085 Y147.747 E6.34762
G1 X134.332 Y149.226 E6.41858
G1 X132.180 Y150.019 E6.48954
G1 X131.000 Y150.125 E6.52619
G1 X51.000 Y150.125 E9.00150
G1 X48.741 Y149.728 E9.07246
G1 X46.753 Y148.585 E9.14342
G1 X45.274 Y146.832 E9.21438
G1 X44.481 Y144.680 E9.28535
G1 X44.375 Y143.500 E9.32200
G1 X44.375 Y60.500 E11.89013
G1 X44.772 Y58.241 E11.96109
G1 X45.915 Y56.253 E12.03205
G1 X46.785 Y55.519 E12.06725
G1 F1800.000 E11.36725
G1 Z0.632 F3000.000
G92 E0
G1 X129.400 Y141.900 F3000.000
G1 Z0.350 F3000.000
G1 E0.70000 F1800.000
G1 X52.600 Y141.900 E3.07631 F720.000
G1 X52.600 Y62.100 E5.54544
G1 X129.400 Y62.100 E7.92174
G1 X129.400 Y141.848 E10.38925
G1 X130.025 Y142.525 F3000.000
G1 X51.975 Y142.525 E12.80423 F720.000
G1 X51.975 Y61.475 E15.31203
G1 X130.025 Y61.475 E17.72700
G1 X130.025 Y142.473 E20.23318
G1 X130.650 Y143.150 F3000.000
G1 X51.350 Y143.150 E22.68683 F504.000
G1 X51.350 Y60.850 E25.23330
G1 X130.650 Y60.850 E27.68694
G1 X130.650 Y143.098 E30.23179
G1 X130.347 Y142.975 F3000.000
G1 X53.033 Y141.427 F3000.000
G1 X53.073 Y141.467 E30.23354 F1080.000
G1 X53.957 Y141.467 E30.26091
G1 X53.033 Y140.543 E30.30136
G1 X53.033 Y139.658 E30.32873
G1 X54.842 Y141.467 E30.40789
G1 X55.726 Y141.467 E30.43525
G1 X53.033 Y138.774 E30.55312
G1 X53.033 Y137.889 E30.58048
G1 X56.611 Y141.467 E30.73705
G1 X57.495 Y141.467 E30.76442
G1 X53.033 Y137.005 E30.95969
G1 X53.033 Y136.120 E30.98706
G1 X58.380 Y141.467 E31.22103
G1 X59.264 Y141.467 E31.24840
G1 X53.033 Y135.236 E31.52107
G1 X53.033 Y134.351 E31.54844
G1 X60.149 Y141.467 E31.85982
G1 X61.033 Y141.467 E31.88719
G1 X53.033 Y133.467 E32.23728
G1 X53.033 Y132.582 E32.26465
G1 X61.918 Y141.467 E32.65344
G1 X62.802 Y141.467 E32.68080
G1 X53.033 Y131.698 E33.10830
G1 X53.033 Y130.813 E33.13567
G1 X63.687 Y141.467 E33.60186
G1 X64.571 Y141.467 E33.62923
G1 X53.033 Y129.929 E34.13413
G1 X53.033 Y129.044 E34.16150
G1 X65.456 Y141.467 E34.70511
G1 X66.340 Y141.467 E34.73247
G1 X53.033 Y128.160 E35.31478
G1 X53.033 Y127.275 E35.34215
G1 X67.225 Y141.467 E35.96316
G1 X68.109 Y141.467 E35.99053
G1 X53.033 Y126.391 E36.65025
G1 X53.033 Y125.506 E36.67762
G1 X68.994 Y141.467 E37.37604
G1 X69.878 Y141.467 E37.40341
G1 X53.033 Y124.622 E38.14053
G1 X53.033 Y123.737 E38.16790
G1 X70.763 Y141.467 E38.94373
G1 X71.647 Y141.467 E38.97110
G1 X53.033 Y122.853 E39.78563
G1 X53.033 Y121.968 E39.81300
G1 X72.532 Y141.467 E40.66623
G1 X73.416 Y141.467 E40.69360
G1 X53.033 Y121.084 E41.58554
G1 X53.033 Y120.199 E41.61291
G1 X74.301 Y141.467 E42.54355
G1 X75.185 Y141.467 E42.57092
G1 X53.033 Y119.315 E43.54027
G1 X53.033 Y118.430 E43.56764
G1 X76.070 Y141.467 E44.57569
G1 X76.955 Y141.467 E44.60306
G1 X53.033 Y117.545 E45.64982
G1 X53.033 Y116.661 E45.67718
G1 X77.839 Y141.467 E46.76264
G1 X78.724 Y141.467 E46.79001
G1 X53.033 Y115.776 E47.91418
G1 X53.033 Y114.892 E47.94154
G1 X79.608 Y141.467 E49.10441
G1 X80.493 Y141.467 E49.13178
G1 X53.033 Y114.007 E50.33335
G1 X53.033 Y113.123 E50.36072
G1 X81.377 Y141.467 E51.60100
G1 X82.262 Y141.467 E51.62837
G1 X53.033 Y112.238 E52.90735
G1 X53.033 Y111.354 E52.93471
G1 X83.146 Y141.467 E54.25240
G1 X84.031 Y141.467 E54.27977
G1 X53.033 Y110.469 E55.63615
G1 X53.033 Y109.585 E55.66352
G1 X84.915 Y141.467 E57.05861
G1 X85.800 Y141.467 E57.08598
G1 X53.033 Y108.700 E58.51978
G1 X53.033 Y107.816 E58.54715
G1 X86.684 Y141.467 E60.01965
G1 X87.569 Y141.467 E60.04701
G1 X53.033 Y106.931 E61.55822
G1 X53.033 Y106.047 E61.58559
G1 X88.453 Y141.467 E63.13549
G1 X89.338 Y141.467 E63.16286
G1 X53.033 Y105.162 E64.75147
G1 X53.033 Y104.278 E64.77884
G1 X90.222 Y141.467 E66.40616
G1 X91.107 Y141.467 E66.43352
G1 X53.033 Y103.393 E68.09954
G1 X53.033 Y102.509 E68.12691
G1 X91.991 Y141.467 E69.83164
G1 X92.876 Y141.467 E69.85900
G1 X53.033 Y101.624 E71.60243
G1 X53.033 Y100.740 E71.62980
G1 X93.760 Y141.467 E73.41193
G1 X94.645 Y141.467 E73.43930
G1 X53.033 Y99.855 E75.26013
G1 X53.033 Y98.971 E75.28750
G1 X95.529 Y141.467 E77.14704
G1 X96.414 Y141.467 E77.17441
G1 X53.033 Y98.086 E79.07265
G1 X53.033 Y97.202 E79.10002
G1 X97.298 Y141.467 E81.03697
G1 X98.183 Y141.467 E81.06433
G1 X53.033 Y96.317 E83.03999
G1 X53.033 Y95.433 E83.06735
G1 X99.067 Y141.467 E85.08171
G1 X99.952 Y141.467 E85.10908
G1 X53.033 Y94.548 E87.16214
G1 X53.033 Y93.664 E87.18950
G1 X100.836 Y141.467 E89.28127
G1 X101.721 Y141.467 E89.30863
G1 X53.033 Y92.779 E91.43910
G1 X53.033 Y91.895 E91.46647
G1 X102.605 Y141.467 E93.63564
G1 X103.490 Y141.467 E93.66301
G1 X53.033 Y91.010 E95.87088
G1 X53.033 Y90.126 E95.89825
G1 X104.374 Y141.467 E98.14483
G1 X105.259 Y141.467 E98.17220
G1 X53.033 Y89.241 E100.45748
G1 X53.033 Y88.357 E100.48485
G1 X106.143 Y141.467 E102.80883
G1 X107.028 Y141.467 E102.83620
G1 X53.033 Y87.472 E105.19889
G1 X53.033 Y86.588 E105.22626
G1 X107.912 Y141.467 E107.62766
G1 X108.797 Y141.467 E107.65502
G1 X53.033 Y85.703 E110.09512
G1 X53.033 Y84.819 E110.12249
G1 X109.681 Y141.467 E112.60129
G1 X110.566 Y141.467 E112.62866
G1 X53.033 Y83.934 E115.14617
G1 X53.033 Y83.050 E115.17353
G1 X111.450 Y141.467 E117.72974
G1 X112.335 Y141.467 E117.75711
G1 X53.033 Y82.165 E120.35203
G1 X53.033 Y81.281 E120.37939
G1 X113.219 Y141.467 E123.01301
G1 X114.104 Y141.467 E123.04038
G1 X53.033 Y80.396 E125.71270
G1 X53.033 Y79.512 E125.74007
G1 X114.988 Y141.467 E128.45110
G1 X115.873 Y141.467 E128.47846
G1 X53.033 Y78.627 E131.22819
G1 X53.033 Y77.743 E131.25556
G1 X116.757 Y141.467 E134.04400
G1 X117.642 Y141.467 E134.07136
G1 X53.033 Y76.858 E136.89850
G1 X53.033 Y75.974 E136.92587
G1 X118.526 Y141.467 E139.79171
G1 X119.411 Y141.467 E139.81908
G1 X53.033 Y75.089 E142.72363
G1 X53.033 Y74.205 E142.75099
G1 X120.295 Y141.467 E145.69424
G1 X121.180 Y141.467 E145.72161
G1 X53.033 Y73.320 E148.70356
G1 X53.033 Y72.436 E148.73093
G1 X122.064 Y141.467 E151.75159
G1 X122.949 Y141.467 E151.77896
G1 X53.033 Y71.551 E154.83832
G1 X53.033 Y70.667 E154.86569
G1 X123.833 Y141.467 E157.96375
G1 X124.718 Y141.467 E157.99112
G1 X53.033 Y69.782 E161.12789
G1 X53.033 Y68.898 E161.15526
G1 X125.602 Y141.467 E164.33073
G1 X126.487 Y141.467 E164.35810
G1 X53.033 Y68.013 E167.57228
G1 X53.033 Y67.129 E167.59964
G1 X127.371 Y141.467 E170.85252
G1 X128.256 Y141.467 E170.87989
G1 X53.033 Y66.244 E174.17148
G1 X53.033 Y65.360 E174.19885
G1 X128.967 Y141.294 E177.52155
G1 X128.967 Y140.409 E177.54892
G1 X53.033 Y64.475 E180.87163
G1 X53.033 Y63.591 E180.89900
G1 X128.967 Y139.525 E184.22171
G1 X128.967 Y138.640 E184.24907
G1 X53.033 Y62.706 E187.57178
G1 X53.744 Y62.533 E187.59443
G1 X128.967 Y137.756 E190.88602
G1 X128.967 Y136.871 E190.91339
G1 X54.629 Y62.533 E194.16627
G1 X55.513 Y62.533 E194.19364
G1 X128.967 Y135.987 E197.40781
G1 X128.967 Y135.102 E197.43518
G1 X56.398 Y62.533 E200.61066
G1 X57.282 Y62.533 E200.63802
G1 X128.967 Y134.218 E203.77479
G1 X128.967 Y133.333 E203.80216
G1 X58.167 Y62.533 E206.90023
G1 X59.051 Y62.533 E206.92759
G1 X128.967 Y132.449 E209.98696
G1 X128.967 Y131.564 E210.01432
G1 X59.936 Y62.533 E213.03498
G1 X60.820 Y62.533 E213.06235
G1 X128.967 Y130.680 E216.04430
G1 X128.967 Y129.795 E216.07167
G1 X61.705 Y62.533 E219.01492
G1 X62.589 Y62.533 E219.04229
G1 X128.967 Y128.911 E221.94683
G1 X128.967 Y128.026 E221.97420
G1 X63.474 Y62.533 E224.84004
G1 X64.358 Y62.533 E224.86741
G1 X128.967 Y127.142 E227.69455
G1 X128.967 Y126.257 E227.72192
G1 X65.243 Y62.533 E230.51035
G1 X66.127 Y62.533 E230.53772
G1 X128.967 Y125.373 E233.28745
G1 X128.967 Y124.488 E233.31482
G1 X67.012 Y62.533 E236.02584
G1 X67.896 Y62.533 E236.05321
G1 X128.967 Y123.604 E238.72553
G1 X128.967 Y122.719 E238.75290
G1 X68.781 Y62.533 E241.38652
G1 X69.665 Y62.533 E241.41389
G1 X128.967 Y121.835 E244.00880
G1 X128.967 Y120.950 E244.03617
G1 X70.550 Y62.533 E246.59238
G1 X71.434 Y62.533 E246.61975
G1 X128.967 Y120.066 E249.13725
G1 X128.967 Y119.181 E249.16462
G1 X72.319 Y62.533 E251.64342
G1 X73.203 Y62.533 E251.67079
G1 X128.967 Y118.297 E254.11089
G1 X128.967 Y117.412 E254.13826
G1 X74.088 Y62.533 E256.53965
G1 X74.972 Y62.533 E256.56702
G1 X128.967 Y116.528 E258.92971
G1 X128.967 Y115.643 E258.95708
G1 X75.857 Y62.533 E261.28107
G1 X76.741 Y62.533 E261.30843
G1 X128.967 Y114.759 E263.59372
G1 X128.967 Y113.874 E263.62108
G1 X77.626 Y62.533 E265.86766
G1 X78.510 Y62.533 E265.89503
G1 X128.967 Y112.990 E268.10291
G1 X128.967 Y112.105 E268.13027
G1 X79.395 Y62.533 E270.29944
G1 X80.279 Y62.533 E270.32681
G1 X128.967 Y111.221 E272.45728
G1 X128.967 Y110.336 E272.48465
G1 X81.164 Y62.533 E274.57641
G1 X82.048 Y62.533 E274.60378
G1 X128.967 Y109.452 E276.65684
G1 X128.967 Y108.567 E276.68421
G1 X82.933 Y62.533 E278.69856
G1 X83.817 Y62.533 E278.72593
G1 X128.967 Y107.683 E280.70158
G1 X128.967 Y106.798 E280.72895
G1 X84.702 Y62.533 E282.66589
G1 X85.586 Y62.533 E282.69326
G1 X128.967 Y105.914 E284.59151
G1 X128.967 Y105.029 E284.61887
G1 X86.471 Y62.533 E286.47841
G1 X87.355 Y62.533 E286.50578
G1 X128.967 Y104.145 E288.32662
G1 X128.967 Y103.260 E288.35398
G1 X88.240 Y62.533 E290.13612
G1 X89.124 Y62.533 E290.16348
G1 X128.967 Y102.376 E291.90691
G1 X128.967 Y101.491 E291.93428
G1 X90.009 Y62.533 E293.63900
G1 X90.893 Y62.533 E293.66637
G1 X128.967 Y100.607 E295.33239
G1 X128.967 Y99.722 E295.35976
G1 X91.778 Y62.533 E296.98707
G1 X92.662 Y62.533 E297.01444
G1 X128.967 Y98.838 E298.60305
G1 X128.967 Y97.953 E298.63042
G1 X93.547 Y62.533 E300.18033
G1 X94.431 Y62.533 E300.20770
G1 X128.967 Y97.069 E301.71890
G1 X128.967 Y96.184 E301.74627
G1 X95.316 Y62.533 E303.21877
G1 X96.200 Y62.533 E303.24614
G1 X128.967 Y95.300 E304.67993
G1 X128.967 Y94.415 E304.70730
G1 X97.085 Y62.533 E306.10239
G1 X97.969 Y62.533 E306.12976
G1 X128.967 Y93.531 E307.48615
G1 X128.967 Y92.646 E307.51352
G1 X98.854 Y62.533 E308.83120
G1 X99.738 Y62.533 E308.85857
G1 X128.967 Y91.762 E310.13755
G1 X128.967 Y90.877 E310.16492
G1 X100.623 Y62.533 E311.40519
G1 X101.507 Y62.533 E311.43256
G1 X128.967 Y89.993 E312.63413
G1 X128.967 Y89.108 E312.66150
G1 X102.392 Y62.533 E313.82437
G1 X103.276 Y62.533 E313.85174
G1 X128.967 Y88.224 E314.97590
G1 X128.967 Y87.339 E315.00327
G1 X104.161 Y62.533 E316.08873
G1 X105.045 Y62.533 E316.11610
G1 X128.967 Y86.455 E317.16286
G1 X128.967 Y85.570 E317.19022
G1 X105.930 Y62.533 E318.19828
G1 X106.815 Y62.533 E318.22564
G1 X128.967 Y84.685 E319.19499
G1 X128.967 Y83.801 E319.22236
G1 X107.699 Y62.533 E320.15301
G1 X108.584 Y62.533 E320.18037
G1 X128.967 Y82.916 E321.07232
G1 X128.967 Y82.032 E321.09968
G1 X109.468 Y62.533 E321.95292
G1 X110.353 Y62.533 E321.98029
G1 X128.967 Y81.147 E322.79482
G1 X128.967 Y80.263 E322.82219
G1 X111.237 Y62.533 E323.59802
G1 X112.122 Y62.533 E323.62539
G1 X128.967 Y79.378 E324.36251
G1 X128.967 Y78.494 E324.38988
G1 X113.006 Y62.533 E325.08830
G1 X113.891 Y62.533 E325.11567
G1 X128.967 Y77.609 E325.77539
G1 X128.967 Y76.725 E325.80275
G1 X114.775 Y62.533 E326.42377
G1 X115.660 Y62.533 E326.45113
G1 X128.967 Y75.840 E327.03344
G1 X128.967 Y74.956 E327.06081
G1 X116.544 Y62.533 E327.60442
G1 X117.429 Y62.533 E327.63178
G1 X128.967 Y74.071 E328.13669
G1 X128.967 Y73.187 E328.16405
G1 X118.313 Y62.533 E328.63025
G1 X119.198 Y62.533 E328.65762
G1 X128.967 Y72.302 E329.08511
G1 X128.967 Y71.418 E329.11248
G1 X120.082 Y62.533 E329.50127
G1 X120.967 Y62.533 E329.52864
G1 X128.967 Y70.533 E329.87872
G1 X128.967 Y69.649 E329.90609
G1 X121.851 Y62.533 E330.21747
G1 X122.736 Y62.533 E330.24484
G1 X128.967 Y68.764 E330.51752
G1 X128.967 Y67.880 E330.54489
G1 X123.620 Y62.533 E330.77886
G1 X124.505 Y62.533 E330.80623
G1 X128.967 Y66.995 E331.00150
G1 X128.967 Y66.111 E331.02887
G1 X125.389 Y62.533 E331.18543
G1 X126.274 Y62.533 E331.21280
G1 X128.967 Y65.226 E331.33066
G1 X128.967 Y64.342 E331.35803
G1 X127.158 Y62.533 E331.43719
G1 X128.043 Y62.533 E331.46456
G1 X128.967 Y63.457 E331.50501
G1 X128.967 Y62.573 E331.53238
G1 X128.927 Y62.533 E331.53413
G1 F1800.000 E330.83413
G1 Z0.832 F3000.000
G92 E0
G1 X130.125 Y142.625 F3000.000
G1 Z0.550 F3000.000
G1 E0.70000 F1800.000
G1 X51.875 Y142.625 E1.47491 F2400.000
G1 X51.875 Y61.375 E2.27952
G1 X130.125 Y61.375 E3.05443
G1 X130.125 Y142.573 E3.85853
G1 X130.475 Y142.975 F3000.000
G1 X51.525 Y142.975 E4.64037 F2400.000
G1 X51.525 Y61.025 E5.45192
G1 X130.475 Y61.025 E6.23376
G1 X130.475 Y142.923 E7.04479
G1 X130.825 Y143.325 F3000.000
G1 X51.175 Y143.325 E7.83356 F1680.000
G1 X51.175 Y60.675 E8.65204
G1 X130.825 Y60.675 E9.44081
G1 X130.825 Y143.273 E10.25877
G1 X130.522 Y143.150 F3000.000
G1 X129.862 Y142.322 F3000.000
G1 X129.822 Y142.362 E10.25954 F3600.000
G1 X129.139 Y142.362 E10.26883
G1 X129.862 Y141.639 E10.28274
G1 X129.862 Y140.957 E10.29203
G1 X128.457 Y142.362 E10.31908
G1 X127.774 Y142.362 E10.32837
G1 X129.862 Y140.274 E10.36856
G1 X129.862 Y139.591 E10.37785
G1 X127.091 Y142.362 E10.43118
G1 X126.409 Y142.362 E10.44047
G1 X129.862 Y138.909 E10.50694
G1 X129.862 Y138.226 E10.51623
G1 X125.726 Y142.362 E10.59584
G1 X125.043 Y142.362 E10.60513
G1 X129.862 Y137.543 E10.69788
G1 X129.862 Y136.861 E10.70717
G1 X124.361 Y142.362 E10.81306
G1 X123.678 Y142.362 E10.82235
G1 X129.862 Y136.178 E10.94138
G1 X129.862 Y135.496 E10.95067
G1 X122.996 Y142.362 E11.08284
G1 X122.313 Y142.362 E11.09213
G1 X129.862 Y134.813 E11.23744
G1 X129.862 Y134.130 E11.24673
G1 X121.630 Y142.362 E11.40517
G1 X120.948 Y142.362 E11.41447
G1 X129.862 Y133.448 E11.58605
G1 X129.862 Y132.765 E11.59534
G1 X120.265 Y142.362 E11.78007
G1 X119.583 Y142.362 E11.78936
G1 X129.862 Y132.083 E11.98723
G1 X129.862 Y131.400 E11.99652
G1 X118.900 Y142.362 E12.20752
G1 X118.217 Y142.362 E12.21681
G1 X129.862 Y130.717 E12.44096
G1 X129.862 Y130.035 E12.45025
G1 X117.535 Y142.362 E12.68754
G1 X116.852 Y142.362 E12.69683
G1 X129.862 Y129.352 E12.94725
G1 X129.862 Y128.669 E12.95654
G1 X116.169 Y142.362 E13.22011
G1 X115.487 Y142.362 E13.22940
G1 X129.862 Y127.987 E13.50610
G1 X129.862 Y127.304 E13.51539
G1 X114.804 Y142.362 E13.80524
G1 X114.122 Y142.362 E13.81453
G1 X129.862 Y126.622 E14.11751
G1 X129.862 Y125.939 E14.12680
G1 X113.439 Y142.362 E14.44293
G1 X112.756 Y142.362 E14.45222
G1 X129.862 Y125.256 E14.78148
G1 X129.862 Y124.574 E14.79077
G1 X112.074 Y142.362 E15.13317
G1 X111.391 Y142.362 E15.14246
G1 X129.862 Y123.891 E15.49801
G1 X129.862 Y123.209 E15.50730
G1 X110.708 Y142.362 E15.87598
G1 X110.026 Y142.362 E15.88527
G1 X129.862 Y122.526 E16.26709
G1 X129.862 Y121.843 E16.27638
G1 X109.343 Y142.362 E16.67134
G1 X108.661 Y142.362 E16.68064
G1 X129.862 Y121.161 E17.08874
G1 X129.862 Y120.478 E17.09803
G1 X107.978 Y142.362 E17.51927
G1 X107.295 Y142.362 E17.52856
G1 X129.862 Y119.795 E17.96294
